storage/app/icons/phosphoricons/regular/network.svg

<svg xmlns="http://www.w3.org/2000/svg" fill="currentColor" viewBox="0 0 256 256"><path d="M232 112h-96V88h8a16 16 0 0 0 16-16V40a16 16 0 0 0-16-16h-32a16 16 0 0 0-16 16v32a16 16 0 0 0 16 16h8v24H24a8 8 0 0 0 0 16h32v32h-8a16 16 0 0 0-16 16v32a16 16 0 0 0 16 16h32a16 16 0 0 0 16-16v-32a16 16 0 0 0-16-16h-8v-32h112v32h-8a16 16 0 0 0-16 16v32a16 16 0 0 0 16 16h32a16 16 0 0 0 16-16v-32a16 16 0 0 0-16-16h-8v-32h32a8 8 0 0 0 0-16M112 40h32v32h-32ZM80 208H48v-32h32Zm128 0h-32v-32h32Z"/></svg>

<svg xmlns="http://www.w3.org/2000/svg" viewBox="0 0 256 256" fill="currentColor"><path d="M232,112H136V88h8a16,16,0,0,0,16-16V40a16,16,0,0,0-16-16H112A16,16,0,0,0,96,40V72a16,16,0,0,0,16,16h8v24H24a8,8,0,0,0,0,16H56v32H48a16,16,0,0,0-16,16v32a16,16,0,0,0,16,16H80a16,16,0,0,0,16-16V176a16,16,0,0,0-16-16H72V128H184v32h-8a16,16,0,0,0-16,16v32a16,16,0,0,0,16,16h32a16,16,0,0,0,16-16V176a16,16,0,0,0-16-16h-8V128h32a8,8,0,0,0,0-16ZM112,40h32V72H112ZM80,208H48V176H80Zm128,0H176V176h32Z"/></svg>
